src/assets/outline/SecurityTime.svg

<svg width="24" height="24" viewBox="0 0 24 24"  xmlns="http://www.w3.org/2000/svg">
<path d="M11.9999 22.7604C10.9099 22.7604 9.82992 22.4404 8.97992 21.8104L4.6799 18.6004C3.5399 17.7504 2.6499 15.9704 2.6499 14.5604V7.12043C2.6499 5.58043 3.77992 3.94043 5.22992 3.40043L10.2199 1.53043C11.2099 1.16043 12.7699 1.16043 13.7599 1.53043L18.7499 3.40043C20.1999 3.94043 21.3299 5.58043 21.3299 7.12043V14.5504C21.3299 15.9704 20.4399 17.7404 19.2999 18.5904L14.9999 21.8004C14.1699 22.4404 13.0899 22.7604 11.9999 22.7604ZM10.7499 2.94043L5.75992 4.81043C4.90992 5.13043 4.15991 6.21043 4.15991 7.13043V14.5604C4.15991 15.5104 4.8299 16.8404 5.5799 17.4004L9.87991 20.6104C11.0299 21.4704 12.9699 21.4704 14.1299 20.6104L18.4299 17.4004C19.1899 16.8304 19.8499 15.5104 19.8499 14.5604V7.12043C19.8499 6.21043 19.0999 5.13043 18.2499 4.80043L13.2599 2.93043C12.5799 2.69043 11.4199 2.69043 10.7499 2.94043Z" />
<path d="M12 16.25C9.38 16.25 7.25 14.12 7.25 11.5C7.25 8.88 9.38 6.75 12 6.75C14.62 6.75 16.75 8.88 16.75 11.5C16.75 14.12 14.62 16.25 12 16.25ZM12 8.25C10.21 8.25 8.75 9.71 8.75 11.5C8.75 13.29 10.21 14.75 12 14.75C13.79 14.75 15.25 13.29 15.25 11.5C15.25 9.71 13.79 8.25 12 8.25Z" />
<path d="M10.9999 13.2498C10.7499 13.2498 10.4999 13.1198 10.3599 12.8898C10.1499 12.5298 10.2599 12.0698 10.6199 11.8598L11.3799 11.3998C11.4599 11.3498 11.4999 11.2698 11.4999 11.1898V10.2598C11.4999 9.84977 11.8399 9.50977 12.2499 9.50977C12.6599 9.50977 12.9999 9.83977 12.9999 10.2498V11.1798C12.9999 11.7898 12.6699 12.3698 12.1499 12.6798L11.3799 13.1398C11.2699 13.2198 11.1299 13.2498 10.9999 13.2498Z" />
</svg>

<?xml version="1.0" encoding="UTF-8"?>
<svg width="24" height="24" viewBox="0 0 24 24" xmlns="http://www.w3.org/2000/svg">
 <path d="m12 22.76c-1.09 0-2.17-0.32-3.02-0.95l-4.3-3.21c-1.14-0.85-2.03-2.63-2.03-4.04v-7.44c0-1.54 1.13-3.18 2.58-3.72l4.99-1.87c0.99-0.37 2.55-0.37 3.54 0l4.99 1.87c1.45 0.54 2.58 2.18 2.58 3.72v7.43c0 1.42-0.89 3.19-2.03 4.04l-4.3 3.21c-0.83 0.64-1.91 0.96-3 0.96zm-1.25-19.82-4.99 1.87c-0.85 0.32-1.6 1.4-1.6 2.32v7.43c0 0.95 0.66999 2.28 1.42 2.84l4.3 3.21c1.15 0.86 3.09 0.86 4.25 0l4.3-3.21c0.76-0.57 1.42-1.89 1.42-2.84v-7.44c0-0.91-0.75-1.99-1.6-2.32l-4.99-1.87c-0.68-0.24-1.84-0.24-2.51 0.01z"/>
 <path d="m12 16.25c-2.62 0-4.75-2.13-4.75-4.75s2.13-4.75 4.75-4.75 4.75 2.13 4.75 4.75-2.13 4.75-4.75 4.75zm0-8c-1.79 0-3.25 1.46-3.25 3.25s1.46 3.25 3.25 3.25 3.25-1.46 3.25-3.25-1.46-3.25-3.25-3.25z"/>
 <path d="m11 13.25c-0.25 0-0.5-0.13-0.64-0.36-0.21-0.36-0.1-0.82 0.26-1.03l0.76-0.46c0.08-0.05 0.12-0.13 0.12-0.21v-0.93c0-0.41003 0.34-0.75003 0.75-0.75003s0.75 0.33 0.75 0.74003v0.93c0 0.61-0.33 1.19-0.85 1.5l-0.77 0.46c-0.11 0.08-0.25 0.11-0.38 0.11z"/>
</svg>
